X: 1
T: Morning Lark, The
M: 6/8
L: 1/8
R: jig
K: Dmaj
AFD D2A,|DEF Adc|BGG DGG|B2B BdB|
AFD D2A,|DEF A3|def gfe|fd^c d2B:|
|:ABd fdd|add fdB|Add fed|edB BAF|
Add fdd|add fdd|faf ede|fd^c d2B:|
